shader bottomDisp (output float resultF = 0)
{
    float s = 2*u;
    float t = mod(2*v,1.4); //foreground circle
    float discs;
    point centre2 = point (0.9,0.5,0);
    point here2 = point (s+0.05,(3.7*t)-0.6,0); //positioning
    float dist2 = distance(centre2,here2);
    float radius = u * 0.8;
    float inDisk = smoothstep(radius,radius,dist2) - 1;

    resultF = inDisk * 0.03;
}